X: 2291
M: C
L: 1/8
K: F	% and Dm
vFuD |:\
(CF) (3FFF FGAB | cAdB cAGF |\
(A>D) (3DDD DEFG |[1 AFGE FDCA, :|[2 AFGE F2 ||
d>A |:\
[1 A>c (3ccc c3d | efge fedc :|\
[2 ABcA GECD | EDD^C D2 |]


